svg/gcp-repos.svg

<?xml version="1.0" encoding="UTF-8"?>
<svg xmlns="http://www.w3.org/2000/svg" xmlns:xlink="http://www.w3.org/1999/xlink" width="35.609001" height="32" viewBox="0 0 35.609001 32">
<defs>
<filter id="filter-remove-color" x="0%" y="0%" width="100%" height="100%">
<feColorMatrix color-interpolation-filters="sRGB" values="0 0 0 0 1 0 0 0 0 1 0 0 0 0 1 0 0 0 1 0" />
</filter>
<clipPath id="clip-0">
<path clip-rule="nonzero" d="M 0 0 L 35.625 0 L 35.625 32 L 0 32 Z M 0 0 "/>
</clipPath>
<image id="source-17" x="0" y="0" width="36" height="32" xlink:href="data:image/png;base64,iVBORw0KGgoAAAANSUhEUgAAACQAAAAgCAYAAAB6kdqOAAAABmJLR0QA/wD/AP+gvaeTAAAAW0lEQVRYhe3PMQqAMBAF0dHYef+rWqqNFlY/W0QE58FCil2YgKSfmTr3VqCNDAF2YFs6l9s1vR+oOu7HXDgaFfNQCXqFQYlBiUGJQYlBiUGJQYlBiUGJQcnngk5WXAM9VJDVCAAAAABJRU5ErkJggg=="/>
<mask id="mask-0">
<g filter="url(#filter-remove-color)">
<use xlink:href="#source-17"/>
</g>
</mask>
<clipPath id="clip-1">
<rect x="0" y="0" width="36" height="32"/>
</clipPath>
<g id="source-16" clip-path="url(#clip-1)">
<path fill-rule="nonzero" fill="rgb(0%, 0%, 0%)" fill-opacity="1" d="M 22.160156 8.96875 L 14.742188 10.152344 L 13.285156 15.023438 L 11.039062 13.074219 L 13.394531 22.988281 L 22.394531 31.992188 L 25.117188 31.992188 C 26.265625 31.953125 27.308594 31.3125 27.863281 30.304688 L 33.546875 20.421875 Z M 22.160156 8.96875 "/>
</g>
<clipPath id="clip-2">
<rect x="0" y="0" width="36" height="32"/>
</clipPath>
<g id="source-19" clip-path="url(#clip-2)">
<g clip-path="url(#clip-0)">
<g mask="url(#mask-0)">
<use xlink:href="#source-16"/>
</g>
</g>
</g>
</defs>
<path fill-rule="nonzero" fill="rgb(25.882353%, 52.156863%, 95.686275%)" fill-opacity="1" d="M 35.179688 14.359375 L 27.867188 1.636719 C 27.304688 0.644531 26.261719 0.0195312 25.121094 0 L 10.488281 0 C 9.347656 0.0195312 8.300781 0.644531 7.742188 1.636719 L 0.425781 14.328125 C -0.140625 15.3125 -0.140625 16.523438 0.425781 17.507812 L 7.742188 30.304688 C 8.292969 31.3125 9.335938 31.957031 10.484375 32 L 25.117188 32 C 26.265625 31.960938 27.308594 31.320312 27.863281 30.3125 L 35.179688 17.589844 C 35.753906 16.589844 35.753906 15.363281 35.179688 14.359375 M 35.179688 14.359375 "/>
<use xlink:href="#source-19"/>
<path fill-rule="nonzero" fill="rgb(100%, 100%, 100%)" fill-opacity="1" d="M 19.960938 16.019531 C 19.988281 16.8125 19.589844 17.558594 18.914062 17.976562 C 18.242188 18.394531 17.398438 18.421875 16.699219 18.046875 C 16.003906 17.667969 15.5625 16.941406 15.550781 16.148438 C 15.523438 14.9375 16.480469 13.929688 17.691406 13.894531 C 18.902344 13.859375 19.917969 14.808594 19.960938 16.019531 M 25.921875 15.441406 L 24.269531 12.570312 L 20.902344 12.570312 L 22.875 15.996094 L 22.34375 16.921875 L 20.335938 20.414062 L 19.714844 21.492188 L 18.636719 23.355469 L 21.375 23.355469 C 21.769531 23.355469 22.132812 23.140625 22.332031 22.800781 L 25.921875 16.550781 C 26.117188 16.210938 26.117188 15.792969 25.921875 15.453125 M 15.257812 20.417969 L 12.71875 15.996094 L 11.035156 13.078125 L 9.671875 15.441406 C 9.476562 15.78125 9.476562 16.199219 9.671875 16.539062 L 13.257812 22.804688 C 13.457031 23.144531 13.820312 23.359375 14.214844 23.359375 L 17.503906 23.359375 L 19.195312 20.417969 Z M 23.710938 11.59375 L 22.339844 9.207031 C 22.144531 8.863281 21.78125 8.648438 21.382812 8.648438 L 14.210938 8.648438 C 13.8125 8.648438 13.449219 8.863281 13.253906 9.207031 L 11.59375 12.101562 L 13.28125 15.027344 L 15.257812 11.59375 Z M 23.710938 11.59375 "/>
</svg>

<svg role="img" viewBox="0 0 35.609 32" height="32" width="35.609" xmlns="http://www.w3.org/2000/svg"><defs><clipPath id="406__399__391__clip-0"><path d="M0 0h35.625v32H0Zm0 0"/></clipPath><clipPath id="407__400__392__clip-1"><path d="M0 0h36v32H0z"/></clipPath><g clip-path="url(#407__400__392__clip-1)" id="408__401__394__source-16"><path d="m22.16 8.969-7.418 1.183-1.457 4.871-2.246-1.949 2.356 9.914 9 9.004h2.722a3.26 3.26 0 0 0 2.746-1.687l5.684-9.883Zm0 0"/></g><g clip-path="url(#406__399__391__clip-0)" id="409__402__395__source-19" mask="url(#410__403__396__mask-0)"><use href="#408__401__394__source-16"/></g><filter height="100%" id="411__404__397__filter-remove-color" width="100%" x="0%" y="0%"><feColorMatrix color-interpolation-filters="sRGB" values="0 0 0 0 1 0 0 0 0 1 0 0 0 0 1 0 0 0 1 0"/></filter><image height="32" href="data:image/png;base64,iVBORw0KGgoAAAANSUhEUgAAACQAAAAgCAYAAAB6kdqOAAAABmJLR0QA/wD/AP+gvaeTAAAAW0lEQVRYhe3PMQqAMBAF0dHYef+rWqqNFlY/W0QE58FCil2YgKSfmTr3VqCNDAF2YFs6l9s1vR+oOu7HXDgaFfNQCXqFQYlBiUGJQYlBiUGJQYlBiUGJQcnngk5WXAM9VJDVCAAAAABJRU5ErkJggg==" id="412__405__398__source-17" width="36" x="0" y="0"/><mask id="410__403__396__mask-0"><g filter="url(#411__404__397__filter-remove-color)"><use href="#412__405__398__source-17"/></g></mask></defs><path d="M35.18 14.36 27.867 1.636A3.223 3.223 0 0 0 25.121 0H10.488a3.218 3.218 0 0 0-2.746 1.637L.426 14.328a3.187 3.187 0 0 0 0 3.18l7.316 12.797A3.265 3.265 0 0 0 10.484 32h14.633a3.26 3.26 0 0 0 2.746-1.687L35.18 17.59c.574-1 .574-2.227 0-3.23m0 0" fill="rgb(25.882353%, 52.156863%, 95.686275%)"/><use href="#409__402__395__source-19"/><path d="M19.96 16.02a2.21 2.21 0 0 1-1.046 1.957 2.212 2.212 0 0 1-2.215.07 2.203 2.203 0 0 1-1.148-1.899 2.206 2.206 0 0 1 4.41-.129m5.96-.578-1.651-2.87h-3.368l1.973 3.425-.531.926-2.008 3.492-.621 1.078-1.078 1.863h2.738c.395 0 .758-.214.957-.554l3.59-6.25c.195-.34.195-.758 0-1.098m-10.664 4.965-2.54-4.422-1.683-2.918-1.363 2.363c-.195.34-.195.758 0 1.098l3.586 6.266c.199.34.562.554.957.554h3.289l1.691-2.941Zm8.453-8.824L22.34 9.207a1.1 1.1 0 0 0-.957-.559H14.21a1.1 1.1 0 0 0-.957.559l-1.66 2.895 1.687 2.925 1.977-3.433Zm0 0" fill="rgb(100%, 100%, 100%)"/></svg>
